assets/fc/fc-news.svg

<svg xmlns="http://www.w3.org/2000/svg" width="100%" height="100%" viewBox="0 0 48 48"><path fill="#FF5722" d="M32 15v28H10c-2.2 0-4-1.8-4-4V15h26z"/><path fill="#FFCCBC" d="M14 5v34c0 2.2-1.8 4-4 4h29c2.2 0 4-1.8 4-4V5H14z"/><g fill="#FF5722"><path d="M20 10h18v4H20zM20 17h8v2h-8zM30 17h8v2h-8zM20 21h8v2h-8zM30 21h8v2h-8zM20 25h8v2h-8zM30 25h8v2h-8zM20 29h8v2h-8zM30 29h8v2h-8zM20 33h8v2h-8zM30 33h8v2h-8zM20 37h8v2h-8zM30 37h8v2h-8z"/></g></svg>

<svg xmlns="http://www.w3.org/2000/svg" width="100%" height="100%" viewBox="0 0 48 48"><path fill="#FF5722" d="M32,15v28H10c-2.2,0-4-1.8-4-4V15H32z"/><path fill="#FFCCBC" d="M14,5v34c0,2.2-1.8,4-4,4h29c2.2,0,4-1.8,4-4V5H14z"/><g fill="#FF5722"><path d="M20 10H38V14H20zM20 17H28V19H20zM30 17H38V19H30zM20 21H28V23H20zM30 21H38V23H30zM20 25H28V27H20zM30 25H38V27H30zM20 29H28V31H20zM30 29H38V31H30zM20 33H28V35H20zM30 33H38V35H30zM20 37H28V39H20zM30 37H38V39H30z"/></g></svg>
